X:1
T:[ID 6-24]
T:[ID 6-24]
T:Bezeichnung standardisiert: Menuett Menuet 11.
T:Urheber unbekannt Datum in der hier transkribierten schriftlichen Quelle: 1775
C:Urheber unbekannt
C:Datum in der hier transkribierten schriftlichen Quelle: 1775
L:1/8
M:3/4
K:D
V:1 treble 
V:1
 F4 (3ABc | d2 A2 F2 | egfedc | d2 A2 F2 | egfedc | de f2 F2 | AB c2 B2 | c6 :: A4 B2 | c2 BA^GA | %10
 B2 A2 B2 | c2 BA^GA | FA d2 F2 | G2 E2 F2 | F2 GBAG | FE F6 :| %16

